X: 1538
T: Angel's Share, The
R: reel
M: 4/4
K: Dmajor
|D2AD FAAF|FGGA GFED|EDEA BAdc|ABBA AGFA|
G3A Bded|f3a fedc|eAAA B/c/def|fadf edce|
d2AD FAAF|FGGA GFED|EDEA BAdc|ABBA AGFA|
G3A Bded|f3a fedc|eAAA B/c/def|a2ab ggzg||
f2fa fedc|dAB/c/d ggzg|f2fa fedc|d4 dcBA|
ABBd AFFF|edef d2cd|e2ed cdec|A2B/c/d ggzg|
f2fa fedc|dAB/c/d ggzg|f2fg fdfg|aaab agfd|
ABBd AFFF|edef defa|bz{e}f2- f2ed|d4 dBAF||

